X: 13287
T: Fjellvåk
R: waltz
M: 3/4
K: Dmajor
"DMaj7"F3 A cd|"F#7"c4 A2|"DMaj7"F2 A2 cd|"F#7"c4 c/d3/2|
"Em7"e3 d BA|"A7"[A4-G4] [A2E2]|"D"[A3-F3] [A-B] [A-F][A-D]|"A7"[A6E6]|
"DMaj7"F3 A cd|c4 A2|F2 A2 cd|c4 c/d3/2|
"Em7"B2 (3BcB AG|"D"FE D2 "A7"C2|"D"D6||1 D6:|2 "D"D4 A,2||
|:"Bm7"[B,4D4] [D2C2]|D4 E2|[F3A3] [GA] [AF][DA]|"Em7"[E4A4] [F2A2]|
[A6G6]|"D"F3 E D2|"A7"E4 A2|A,4 A,2|
"Bm7"[B,4D4] [C2D2]|D4 E2|[A3F3] [GA] [FA][DA]|"Em7"[A4E4] EF|
GB "D"FA "Em"EG|"D"FE DC "A"B,C||1 "D"D6-|D4 A,2:|2 "D"D6-|D6||

